X:354
T: WENN DIE BETTELLEUTE TANZEN
N: E0982
O: Europa, Mitteleuropa, Deutschland
R: Tanz - Lied, Reigen, Bettler - Lied
M: 3/4
L: 1/16
K: F
 | F,3EF,2G,2A,2B,2 | C4C6z2 |
C2D2C2B,2A,2G,2 | F,4F,6z2 |
C4C8 | D4D8 |
E4E4E4 | F2zCA,2C2F4 |
C3CC2C2C4 | D3DD2D2D4 |
E2E2E2E2D2E2 | F4F4z4

